src/images/svg/icon-seed.svg

<svg fill="none" height="29" viewBox="0 0 17 29" width="17" xmlns="http://www.w3.org/2000/svg"><path d="m10.707 19.7704c-.1176-.2436-.3108-.4788-.5292-.6468-.26041-.1932-.52081-.2604-.73081-.2772v-.7392h-.6216v.7476c-.3948.0588-.6888.2352-.882.42-.2604.252-.4284.63-.4284 1.0836 0 .3024.0924.588.3528.8568.1932.1932.5376.4032.7896.5124l.5376.2268c.21.0924.378.1512.5628.3444.1764.1848.24361.3696.24361.6132 0 .2604-.05881.4704-.26041.672-.1932.2016-.3948.2688-.6636.2688-.294 0-.5376-.0924-.7308-.336-.1344-.1764-.2352-.4368-.2352-.714l-.8484.1848c.0336.3864.168.756.4704 1.092.3276.3696.6888.5208 1.092.5544v.8232h.6216v-.8484c.3444-.0504.64681-.1932.92401-.4872.3612-.3864.4872-.8148.4872-1.2768 0-.3696-.1008-.7392-.3864-1.0584-.2604-.294-.62161-.462-.93241-.588l-.42-.168c-.1512-.0588-.4116-.1848-.5292-.2856-.1596-.1344-.2184-.2772-.2184-.4704 0-.168.0336-.294.168-.4284.1176-.1176.3192-.2268.6216-.2268.2352 0 .4368.0588.6048.2016.126.1092.2016.2268.25201.3528z" fill="#1b1b1b"/><path d="m11.3406 6.95394c.146-.12659.1618-.34764.0352-.49371-.1266-.14608-.3476-.16187-.4937-.03527zm-1.87505 1.625 1.87505-1.625-.4585-.52898-1.875 1.625z" fill="#1b1b1b"/><path d="m6.21886 7.24212c-.1435-.12951-.36482-.11816-.49432.02535-.12951.1435-.11816.36482.02535.49432zm2.5625 2.3125-2.5625-2.3125-.46897.51967 2.5625 2.31251z" fill="#1b1b1b"/><g stroke="#1b1b1b"><path d="m8.79688 10.0644c0-1.99997-1.8125-6.75015-7.40626-6.75019.65626 6.03131 3.375 6.3752 7.40626 6.75019z"/><circle cx="9.23633" cy="21.752" r="6.5"/><path d="m8.95312 15.3145v-6.81255"/><path d="m8.95312 8.53318c0-1.65625 2.12498-7.749998 7.09378-7.375.7812 4.06252-3 7.375-7.09378 7.375z"/></g></svg>

<svg width="17" height="29" viewBox="0 0 17 29" fill="none" xmlns="http://www.w3.org/2000/svg">
<path d="M10.707 19.7704C10.5894 19.5268 10.3962 19.2916 10.1778 19.1236C9.91739 18.9304 9.65699 18.8632 9.44699 18.8464V18.1072H8.82539V18.8548C8.43059 18.9136 8.13659 19.09 7.94339 19.2748C7.68299 19.5268 7.51499 19.9048 7.51499 20.3584C7.51499 20.6608 7.60739 20.9464 7.86779 21.2152C8.06099 21.4084 8.40539 21.6184 8.65739 21.7276L9.19499 21.9544C9.40499 22.0468 9.57299 22.1056 9.75779 22.2988C9.93419 22.4836 10.0014 22.6684 10.0014 22.912C10.0014 23.1724 9.94259 23.3824 9.74099 23.584C9.54779 23.7856 9.34619 23.8528 9.07739 23.8528C8.78339 23.8528 8.53979 23.7604 8.34659 23.5168C8.21219 23.3404 8.11139 23.08 8.11139 22.8028L7.26299 22.9876C7.29659 23.374 7.43099 23.7436 7.73339 24.0796C8.06099 24.4492 8.42219 24.6004 8.82539 24.634V25.4572H9.44699V24.6088C9.79139 24.5584 10.0938 24.4156 10.371 24.1216C10.7322 23.7352 10.8582 23.3068 10.8582 22.8448C10.8582 22.4752 10.7574 22.1056 10.4718 21.7864C10.2114 21.4924 9.85019 21.3244 9.53939 21.1984L9.11939 21.0304C8.96819 20.9716 8.70779 20.8456 8.59019 20.7448C8.43059 20.6104 8.37179 20.4676 8.37179 20.2744C8.37179 20.1064 8.40539 19.9804 8.53979 19.846C8.65739 19.7284 8.85899 19.6192 9.16139 19.6192C9.39659 19.6192 9.59819 19.678 9.76619 19.8208C9.89219 19.93 9.96779 20.0476 10.0182 20.1736L10.707 19.7704Z" fill="#1B1B1B"/>
<path d="M11.3406 6.95394C11.4866 6.82735 11.5024 6.6063 11.3758 6.46023C11.2492 6.31415 11.0282 6.29836 10.8821 6.42496L11.3406 6.95394ZM9.46555 8.57894L11.3406 6.95394L10.8821 6.42496L9.0071 8.04996L9.46555 8.57894Z" fill="#1B1B1B"/>
<path d="M6.21886 7.24212C6.07536 7.11261 5.85404 7.12396 5.72454 7.26747C5.59503 7.41097 5.60638 7.63229 5.74989 7.76179L6.21886 7.24212ZM8.78136 9.55462L6.21886 7.24212L5.74989 7.76179L8.31239 10.0743L8.78136 9.55462Z" fill="#1B1B1B"/>
<path d="M8.79688 10.0644C8.79688 8.06443 6.98438 3.31425 1.39062 3.31421C2.04688 9.34552 4.76562 9.68941 8.79688 10.0644Z" stroke="#1B1B1B"/>
<circle cx="9.23633" cy="21.752" r="6.5" stroke="#1B1B1B"/>
<path d="M8.95312 15.3145V8.50195" stroke="#1B1B1B"/>
<path d="M8.95312 8.53318C8.95312 6.87693 11.0781 0.783182 16.0469 1.15818C16.8281 5.2207 13.0469 8.53318 8.95312 8.53318Z" stroke="#1B1B1B"/>
</svg>
